Newaita-dark/apps/16/com.github.philip-scott.wallpaperize.svg

<svg height="16" viewBox="0 0 16 16" width="16" xmlns="http://www.w3.org/2000/svg" xmlns:xlink="http://www.w3.org/1999/xlink"><linearGradient id="a" gradientUnits="userSpaceOnUse" x1="7.93826" x2="7.93826" y1="14.0169675" y2="14.67848950002"><stop offset="0" stop-opacity=".27451"/><stop offset="1" stop-opacity="0"/></linearGradient><linearGradient id="b"><stop offset="0" stop-opacity=".313726"/><stop offset=".222222" stop-opacity=".27451"/><stop offset="1" stop-opacity="0"/></linearGradient><radialGradient id="c" cx="450.908936" cy="189.579361" gradientTransform="matrix(.00000009 -.0390662 -.0703192 -.00000005 26.726846 31.797665)" gradientUnits="userSpaceOnUse" r="21.166656" xlink:href="#b"/><radialGradient id="d" cx="450.908936" cy="189.579361" gradientTransform="matrix(-.00000009 .0390662 .0703192 .00000005 -10.850331 -3.76374)" gradientUnits="userSpaceOnUse" r="21.166656" xlink:href="#b"/><radialGradient id="e" cx="450.908936" cy="189.579361" gradientTransform="matrix(-.00000009 -.0390662 .0703192 -.00000005 -10.850331 31.797665)" gradientUnits="userSpaceOnUse" r="21.166656" xlink:href="#b"/><radialGradient id="f" cx="450.908936" cy="189.579361" gradientTransform="matrix(.00000009 .0390662 -.0703192 .00000005 26.726845 -3.763741)" gradientUnits="userSpaceOnUse" r="21.166656" xlink:href="#b"/><linearGradient id="g" gradientTransform="matrix(.0376748 0 0 .108706 -2.927007 16.820674)" gradientUnits="userSpaceOnUse" x1="306.916656" x2="305.954559" y1="-25.791676" y2="-135.329163"><stop offset="0" stop-color="#f48fb1"/><stop offset="1" stop-color="#9fa8da"/></linearGradient><linearGradient id="h" gradientUnits="userSpaceOnUse" x1="8.030571" x2="8.030571" y1="14.12214020609" y2="3.2814917266"><stop offset="0" stop-color="#424242"/><stop offset="1" stop-color="#757575"/></linearGradient><linearGradient id="i" gradientUnits="userSpaceOnUse" x1="10.58434202829" x2="9.92282104064" y1="6.07870569382" y2="4.09414170335"><stop offset="0" stop-color="#ffe0b2"/><stop offset="1" stop-color="#fff3e0"/></linearGradient><linearGradient id="j" gradientUnits="userSpaceOnUse" x1="8.030571" x2="8.030571" y1="14.12214020609" y2="3.2814917266"><stop offset="0" stop-color="#9fa8da"/><stop offset="1" stop-color="#c5cae9"/></linearGradient><linearGradient id="k" gradientUnits="userSpaceOnUse" x1="7.9382592" x2="7.9382592" y1="14.01696600048" y2="2.1095768201"><stop offset="0" stop-color="#bdbdbd"/><stop offset="1" stop-color="#e0e0e0"/></linearGradient><path d="m2.316406 14.015625h11.246094v.664063h-11.246094zm0 0" fill="url(#a)"/><path d="m13.5625 14.015625h1.320312v-.660156h-1.320312zm0 0" fill="url(#c)"/><path d="m2.316406 14.015625h-1.324218v.664063h1.324218zm0 0" fill="url(#d)"/><path d="m2.316406 14.015625h-1.324218v-.660156h1.324218zm0 0" fill="url(#e)"/><path d="m13.5625 14.015625h1.320312v.664063h-1.320312zm0 0" fill="url(#f)"/><path d="m1.652344 2.109375h12.570312c.367188 0 .660156.296875.660156.660156v10.585938c0 .367187-.292968.660156-.660156.660156h-12.570312c-.363282 0-.660156-.292969-.660156-.660156v-10.585938c0-.363281.296874-.660156.660156-.660156zm0 0" fill="url(#g)"/><path d="m4.6875 6.203125c-.105469 0-.207031.046875-.285156.121094l-3.410156 3.410156v3.621094c0 .367187.296874.660156.660156.660156h12.570312c.367188 0 .660156-.292969.660156-.660156v-3.65625l-2.40625-2.140625c-.171874-.152344-.4375-.136719-.585937.035156l-2.628906 3.003906-4.273438-4.273437c-.078125-.078125-.1875-.121094-.300781-.121094zm0 0" fill="url(#h)"/><path d="m1.652344 14.023438c-.363282 0-.660156-.296876-.660156-.660157v-.171875c0 .363282.296874.660156.660156.660156h12.570312c.367188 0 .660156-.296874.660156-.660156v.171875c0 .363281-.292968.660157-.660156.660157zm0 0" fill-opacity=".235294"/><path d="m1.652344 2.148438c-.363282 0-.660156.292968-.660156.660156v.078125c0-.363281.296874-.660157.660156-.660157h12.570312c.367188 0 .660156.296876.660156.660157v-.078125c0-.367188-.292968-.660156-.660156-.660156zm0 0" fill="#fff" fill-opacity=".392157"/><path d="m11.039062 3.992188c-.398437 0-.75.210937-.945312.523437.128906-.058594.277344-.089844.429688-.089844.585937 0 1.054687.46875 1.054687 1.050781 0 .28125-.109375.535157-.289063.722657.5-.113281.867188-.558594.867188-1.089844 0-.617187-.5-1.117187-1.117188-1.117187zm0 0" fill="url(#i)"/><path d="m1.652344 2.109375c-.363282 0-.660156.296875-.660156.660156v4.097657c3.207031-.921876 6.933593-1.449219 10.914062-1.449219 1.011719 0 2.003906.035156 2.976562.097656v-2.746094c0-.363281-.292968-.660156-.660156-.660156zm0 0" fill="#fff" fill-opacity=".117647"/><path d="m4.6875 6.203125c-.105469 0-.207031.046875-.285156.121094l-1.625 1.625.457031.542969c.210937.210937.816406.222656 1.460937-.207032.414063-.410156.910157-.375 1.25 0 .484376.449219.925782.417969 1.417969.417969l-2.375-2.378906c-.078125-.078125-.1875-.121094-.300781-.121094zm7.507812 1.25c-.113281.003906-.226562.050781-.304687.140625l-.96875 1.109375h.027344c.074219.15625.105469.726563.417969.414063.53125-.53125.625-.3125.832031-.101563.3125.3125.523437.625.835937.519531.519532-.207031.609375-.722656.378906-1.140625l-.9375-.835937c-.082031-.070313-.183593-.105469-.28125-.105469zm0 0" fill="url(#j)"/><path d="m1.652344 2.109375c-.363282 0-.660156.296875-.660156.660156v10.585938c0 .367187.296874.660156.660156.660156h12.570312c.367188 0 .660156-.292969.660156-.660156v-10.585938c0-.363281-.292968-.660156-.660156-.660156zm.25.660156h12.074218c.136719 0 .246094.113281.246094.25v10.085938c0 .140625-.109375.25-.246094.25h-12.074218c-.136719 0-.25-.109375-.25-.25v-10.085938c0-.136719.113281-.25.25-.25zm0 0" fill="url(#k)"/><path d="m1.652344 2.109375c-.363282 0-.660156.296875-.660156.660156v.128907c0-.367188.296874-.664063.660156-.664063h12.570312c.367188 0 .660156.296875.660156.664063v-.128907c0-.363281-.292968-.660156-.660156-.660156zm0 10.996094v.128906c0 .136719.113281.246094.25.246094h12.074218c.136719 0 .246094-.109375.246094-.246094v-.128906c0 .140625-.109375.25-.246094.25h-12.074218c-.136719 0-.25-.109375-.25-.25zm0 0" fill="#fff" fill-opacity=".588235"/><path d="m1.902344 2.777344c-.136719 0-.25.109375-.25.246094v.121093c0-.140625.113281-.25.25-.25h12.074218c.136719 0 .246094.109375.246094.25v-.121093c0-.136719-.109375-.246094-.246094-.246094zm-.910156 10.457031v.121094c0 .367187.296874.660156.660156.660156h12.570312c.367188 0 .660156-.292969.660156-.660156v-.121094c0 .367187-.292968.664063-.660156.664063h-12.570312c-.363282 0-.660156-.296876-.660156-.664063zm0 0" fill-opacity=".235294"/><path d="m199.823448 255.093763c-43.932815 0-79.8349 35.902086-79.8349 79.8349v1280.192776c0 44.405211 35.902085 79.8349 79.8349 79.8349h1520.169872c44.40521 0 79.8349-35.429689 79.8349-79.8349v-1280.192776c0-43.932814-35.42969-79.8349-79.8349-79.8349zm30.233335 79.8349h1460.175598c16.533855 0 29.760939 13.69948 29.760939 30.233335v1219.726106c0 17.006251-13.227084 30.233335-29.760939 30.233335h-1460.175598c-16.533855 0-30.233335-13.227084-30.233335-30.233335v-1219.726106c0-16.533855 13.69948-30.233335 30.233335-30.233335zm0 0" fill="none" stroke="#212121" stroke-linecap="round" stroke-width="11.338583" transform="scale(.00826902)"/><path d="m2.644531 3.433594c-.183593 0-.328125.148437-.328125.328125v1.324219c0 .09375.074219.164062.164063.164062.09375 0 .164062-.070312.164062-.164062v-1.15625c0-.09375.074219-.167969.167969-.167969h.824219c.09375 0 .167969-.070313.167969-.164063 0-.089844-.074219-.164062-.167969-.164062zm1.65625 0c-.09375 0-.167969.074218-.167969.164062 0 .09375.074219.164063.167969.164063h.660157c.09375 0 .164062-.070313.164062-.164063 0-.089844-.070312-.164062-.164062-.164062zm1.320313 0c-.089844 0-.164063.074218-.164063.164062 0 .09375.074219.164063.164063.164063h.664062c.089844 0 .164063-.070313.164063-.164063 0-.089844-.074219-.164062-.164063-.164062zm1.324218 0c-.089843 0-.164062.074218-.164062.164062 0 .09375.074219.164063.164062.164063h.664063c.089844 0 .164063-.070313.164063-.164063 0-.089844-.074219-.164062-.164063-.164062zm1.324219 0c-.09375 0-.164062.074218-.164062.164062 0 .09375.070312.164063.164062.164063h.660157c.09375 0 .167968-.070313.167968-.164063 0-.089844-.074218-.164062-.167968-.164062zm1.324219 0c-.09375 0-.167969.074218-.167969.164062 0 .09375.074219.164063.167969.164063h.660156c.089844 0 .164063-.070313.164063-.164063 0-.089844-.074219-.164062-.164063-.164062zm1.320312 0c-.089843 0-.164062.074218-.164062.164062 0 .09375.074219.164063.164062.164063h.664063c.089844 0 .164063-.070313.164063-.164063 0-.089844-.074219-.164062-.164063-.164062zm1.324219 0c-.089843 0-.164062.074218-.164062.164062 0 .09375.074219.164063.164062.164063h.828125c.089844 0 .164063.074219.164063.167969v1.15625c0 .09375.074219.164062.164062.164062.09375 0 .167969-.070312.167969-.164062v-1.324219c0-.179688-.148438-.328125-.332031-.328125zm-9.757812 2.148437c-.089844 0-.164063.074219-.164063.164063v.664062c0 .089844.074219.164063.164063.164063.09375 0 .164062-.074219.164062-.164063v-.664062c0-.089844-.070312-.164063-.164062-.164063zm10.914062 0c-.089843 0-.164062.074219-.164062.164063v.664062c0 .089844.074219.164063.164062.164063.09375 0 .167969-.074219.167969-.164063v-.664062c0-.089844-.074219-.164063-.167969-.164063zm-10.914062 1.324219c-.089844 0-.164063.074219-.164063.164062v.664063c0 .089844.074219.164063.164063.164063.09375 0 .164062-.074219.164062-.164063v-.664063c0-.089843-.070312-.164062-.164062-.164062zm10.914062 0c-.089843 0-.164062.074219-.164062.164062v.664063c0 .089844.074219.164063.164062.164063.09375 0 .167969-.074219.167969-.164063v-.664063c0-.089843-.074219-.164062-.167969-.164062zm-10.914062 1.324219c-.089844 0-.164063.070312-.164063.164062v.660157c0 .09375.074219.167968.164063.167968.09375 0 .164062-.074218.164062-.167968v-.660157c0-.09375-.070312-.164062-.164062-.164062zm10.914062 0c-.089843 0-.164062.070312-.164062.164062v.660157c0 .09375.074219.167968.164062.167968.09375 0 .167969-.074218.167969-.167968v-.660157c0-.09375-.074219-.164062-.167969-.164062zm-10.914062 1.320312c-.089844 0-.164063.074219-.164063.167969v.660156c0 .089844.074219.164063.164063.164063.09375 0 .164062-.074219.164062-.164063v-.660156c0-.09375-.070312-.167969-.164062-.167969zm10.914062 0c-.089843 0-.164062.074219-.164062.167969v.660156c0 .089844.074219.164063.164062.164063.09375 0 .167969-.074219.167969-.164063v-.660156c0-.09375-.074219-.167969-.167969-.167969zm-10.914062 1.324219c-.089844 0-.164063.074219-.164063.164062v1.324219c0 .183594.144532.332031.328125.332031h.992188c.09375 0 .167969-.074218.167969-.167968 0-.089844-.074219-.164063-.167969-.164063h-.824219c-.09375 0-.167969-.074219-.167969-.164062v-1.160157c0-.089843-.070312-.164062-.164062-.164062zm10.914062 0c-.089843 0-.164062.074219-.164062.164062v1.160157c0 .089843-.074219.164062-.164063.164062h-.828125c-.089843 0-.164062.074219-.164062.164063 0 .09375.074219.167968.164062.167968h.992188c.183593 0 .332031-.148437.332031-.332031v-1.324219c0-.089843-.074219-.164062-.167969-.164062zm-9.09375 1.488281c-.09375 0-.167969.074219-.167969.164063 0 .09375.074219.167968.167969.167968h.660157c.09375 0 .164062-.074218.164062-.167968 0-.089844-.070312-.164063-.164062-.164063zm1.320313 0c-.089844 0-.164063.074219-.164063.164063 0 .09375.074219.167968.164063.167968h.664062c.089844 0 .164063-.074218.164063-.167968 0-.089844-.074219-.164063-.164063-.164063h-.660156s0 0-.003906 0zm1.324218 0c-.089843 0-.164062.074219-.164062.164063 0 .09375.074219.167968.164062.167968h.664063c.089844 0 .164063-.074218.164063-.167968 0-.089844-.074219-.164063-.164063-.164063-.003906 0-.003906 0-.003906 0zm1.324219 0c-.09375 0-.164062.074219-.164062.164063 0 .09375.070312.167968.164062.167968h.660157c.09375 0 .167968-.074218.167968-.167968 0-.089844-.074218-.164063-.167968-.164063zm1.324219 0c-.09375 0-.167969.074219-.167969.164063 0 .09375.074219.167968.167969.167968h.660156c.089844 0 .164063-.074218.164063-.167968 0-.089844-.074219-.164063-.164063-.164063zm1.320312 0c-.089843 0-.164062.074219-.164062.164063 0 .09375.074219.167968.164062.167968h.664063c.089844 0 .164063-.074218.164063-.167968 0-.089844-.074219-.164063-.164063-.164063 0 0 0 0-.003906 0zm0 0" fill="#fff" fill-opacity=".529412"/></svg>

<?xml version="1.0" encoding="UTF-8"?>
<svg xmlns="http://www.w3.org/2000/svg" xmlns:xlink="http://www.w3.org/1999/xlink" width="16px" height="16px" viewBox="0 0 16 16" version="1.1">
<defs>
<linearGradient id="linear0" gradientUnits="userSpaceOnUse" x1="254" y1="233.5" x2="254" y2="254.666672" gradientTransform="matrix(0.031253,0,0,0.031253,-0.00000190753,6.719392)">
<stop offset="0" style="stop-color:rgb(0%,0%,0%);stop-opacity:0.27451;"/>
<stop offset="1" style="stop-color:rgb(0%,0%,0%);stop-opacity:0;"/>
</linearGradient>
<radialGradient id="radial0" gradientUnits="userSpaceOnUse" cx="450.908936" cy="189.579361" fx="450.908936" fy="189.579361" r="21.166656" gradientTransform="matrix(0.0000000870852,-0.0390662,-0.0703192,-0.0000000507693,26.726846,31.797665)">
<stop offset="0" style="stop-color:rgb(0%,0%,0%);stop-opacity:0.313726;"/>
<stop offset="0.222222" style="stop-color:rgb(0%,0%,0%);stop-opacity:0.27451;"/>
<stop offset="1" style="stop-color:rgb(0%,0%,0%);stop-opacity:0;"/>
</radialGradient>
<radialGradient id="radial1" gradientUnits="userSpaceOnUse" cx="450.908936" cy="189.579361" fx="450.908936" fy="189.579361" r="21.166656" gradientTransform="matrix(-0.0000000870852,0.0390662,0.0703192,0.0000000507693,-10.850331,-3.76374)">
<stop offset="0" style="stop-color:rgb(0%,0%,0%);stop-opacity:0.313726;"/>
<stop offset="0.222222" style="stop-color:rgb(0%,0%,0%);stop-opacity:0.27451;"/>
<stop offset="1" style="stop-color:rgb(0%,0%,0%);stop-opacity:0;"/>
</radialGradient>
<radialGradient id="radial2" gradientUnits="userSpaceOnUse" cx="450.908936" cy="189.579361" fx="450.908936" fy="189.579361" r="21.166656" gradientTransform="matrix(-0.0000000870852,-0.0390662,0.0703192,-0.0000000507693,-10.850331,31.797665)">
<stop offset="0" style="stop-color:rgb(0%,0%,0%);stop-opacity:0.313726;"/>
<stop offset="0.222222" style="stop-color:rgb(0%,0%,0%);stop-opacity:0.27451;"/>
<stop offset="1" style="stop-color:rgb(0%,0%,0%);stop-opacity:0;"/>
</radialGradient>
<radialGradient id="radial3" gradientUnits="userSpaceOnUse" cx="450.908936" cy="189.579361" fx="450.908936" fy="189.579361" r="21.166656" gradientTransform="matrix(0.0000000870852,0.0390662,-0.0703192,0.0000000507693,26.726845,-3.763741)">
<stop offset="0" style="stop-color:rgb(0%,0%,0%);stop-opacity:0.313726;"/>
<stop offset="0.222222" style="stop-color:rgb(0%,0%,0%);stop-opacity:0.27451;"/>
<stop offset="1" style="stop-color:rgb(0%,0%,0%);stop-opacity:0;"/>
</radialGradient>
<linearGradient id="linear1" gradientUnits="userSpaceOnUse" x1="306.916656" y1="-25.791676" x2="305.954559" y2="-135.329163" gradientTransform="matrix(0.0376748,0,0,0.108706,-2.927007,16.820674)">
<stop offset="0" style="stop-color:rgb(36.078432%,41.960785%,75.294119%);stop-opacity:1;"/>
<stop offset="1" style="stop-color:rgb(47.450981%,52.549022%,79.607844%);stop-opacity:1;"/>
</linearGradient>
<linearGradient id="linear2" gradientUnits="userSpaceOnUse" x1="960" y1="1295.118164" x2="960" y2="255.118118" gradientTransform="matrix(0.0104237,0,0,0.0104237,-1.976181,0.622217)">
<stop offset="0" style="stop-color:rgb(25.882354%,25.882354%,25.882354%);stop-opacity:1;"/>
<stop offset="1" style="stop-color:rgb(38.039216%,38.039216%,38.039216%);stop-opacity:1;"/>
</linearGradient>
<linearGradient id="linear3" gradientUnits="userSpaceOnUse" x1="306.916656" y1="-25.791676" x2="305.954559" y2="-135.329163" gradientTransform="matrix(0.0376748,0,0,0.108706,-2.927006,16.820673)">
<stop offset="0" style="stop-color:rgb(99.215686%,99.215686%,99.215686%);stop-opacity:0.235294;"/>
<stop offset="1" style="stop-color:rgb(100%,100%,100%);stop-opacity:0.196078;"/>
</linearGradient>
<linearGradient id="linear4" gradientUnits="userSpaceOnUse" x1="301.625" y1="-84" x2="301.625" y2="-136.916672" gradientTransform="matrix(0.0393968,0,0,0.0393968,-1.559232,10.123588)">
<stop offset="0" style="stop-color:rgb(100%,65.490198%,14.901961%);stop-opacity:1;"/>
<stop offset="1" style="stop-color:rgb(100%,71.764708%,30.19608%);stop-opacity:1;"/>
</linearGradient>
<linearGradient id="linear5" gradientUnits="userSpaceOnUse" x1="960" y1="1295.118164" x2="960" y2="255.118118" gradientTransform="matrix(0.0104237,0,0,0.0104237,-1.976181,0.622217)">
<stop offset="0" style="stop-color:rgb(56.470591%,64.313728%,68.235296%);stop-opacity:1;"/>
<stop offset="1" style="stop-color:rgb(69.01961%,74.509805%,77.254903%);stop-opacity:1;"/>
</linearGradient>
</defs>
<g id="surface1">
<path style=" stroke:none;fill-rule:nonzero;fill:url(#linear0);" d="M 2.316406 14.015625 L 13.5625 14.015625 L 13.5625 14.679688 L 2.316406 14.679688 Z M 2.316406 14.015625 "/>
<path style=" stroke:none;fill-rule:nonzero;fill:url(#radial0);" d="M 13.5625 14.015625 L 14.882812 14.015625 L 14.882812 13.355469 L 13.5625 13.355469 Z M 13.5625 14.015625 "/>
<path style=" stroke:none;fill-rule:nonzero;fill:url(#radial1);" d="M 2.316406 14.015625 L 0.992188 14.015625 L 0.992188 14.679688 L 2.316406 14.679688 Z M 2.316406 14.015625 "/>
<path style=" stroke:none;fill-rule:nonzero;fill:url(#radial2);" d="M 2.316406 14.015625 L 0.992188 14.015625 L 0.992188 13.355469 L 2.316406 13.355469 Z M 2.316406 14.015625 "/>
<path style=" stroke:none;fill-rule:nonzero;fill:url(#radial3);" d="M 13.5625 14.015625 L 14.882812 14.015625 L 14.882812 14.679688 L 13.5625 14.679688 Z M 13.5625 14.015625 "/>
<path style=" stroke:none;fill-rule:nonzero;fill:url(#linear1);" d="M 1.652344 2.109375 L 14.222656 2.109375 C 14.589844 2.109375 14.882812 2.40625 14.882812 2.769531 L 14.882812 13.355469 C 14.882812 13.722656 14.589844 14.015625 14.222656 14.015625 L 1.652344 14.015625 C 1.289062 14.015625 0.992188 13.722656 0.992188 13.355469 L 0.992188 2.769531 C 0.992188 2.40625 1.289062 2.109375 1.652344 2.109375 Z M 1.652344 2.109375 "/>
<path style=" stroke:none;fill-rule:nonzero;fill:url(#linear2);" d="M 4.6875 6.203125 C 4.582031 6.203125 4.480469 6.25 4.402344 6.324219 L 0.992188 9.734375 L 0.992188 13.355469 C 0.992188 13.722656 1.289062 14.015625 1.652344 14.015625 L 14.222656 14.015625 C 14.589844 14.015625 14.882812 13.722656 14.882812 13.355469 L 14.882812 9.699219 L 12.476562 7.558594 C 12.304688 7.40625 12.039062 7.421875 11.890625 7.59375 L 9.261719 10.597656 L 4.988281 6.324219 C 4.910156 6.246094 4.800781 6.203125 4.6875 6.203125 Z M 4.6875 6.203125 "/>
<path style=" stroke:none;fill-rule:nonzero;fill:rgb(0%,0%,0%);fill-opacity:0.235294;" d="M 1.652344 14.023438 C 1.289062 14.023438 0.992188 13.726562 0.992188 13.363281 L 0.992188 13.191406 C 0.992188 13.554688 1.289062 13.851562 1.652344 13.851562 L 14.222656 13.851562 C 14.589844 13.851562 14.882812 13.554688 14.882812 13.191406 L 14.882812 13.363281 C 14.882812 13.726562 14.589844 14.023438 14.222656 14.023438 Z M 1.652344 14.023438 "/>
<path style=" stroke:none;fill-rule:nonzero;fill:url(#linear3);" d="M 1.652344 2.109375 C 1.289062 2.109375 0.992188 2.40625 0.992188 2.769531 L 0.992188 13.355469 C 0.992188 13.722656 1.289062 14.015625 1.652344 14.015625 L 14.222656 14.015625 C 14.589844 14.015625 14.882812 13.722656 14.882812 13.355469 L 14.882812 2.769531 C 14.882812 2.40625 14.589844 2.109375 14.222656 2.109375 Z M 3.96875 4.09375 L 11.90625 4.09375 C 12.273438 4.09375 12.570312 4.390625 12.570312 4.753906 L 12.570312 11.371094 C 12.570312 11.738281 12.273438 12.03125 11.90625 12.03125 L 3.96875 12.03125 C 3.601562 12.03125 3.308594 11.738281 3.308594 11.371094 L 3.308594 4.753906 C 3.308594 4.390625 3.601562 4.09375 3.96875 4.09375 Z M 3.96875 4.09375 "/>
<path style=" stroke:none;fill-rule:nonzero;fill:rgb(100%,100%,100%);fill-opacity:0.392157;" d="M 1.652344 2.148438 C 1.289062 2.148438 0.992188 2.441406 0.992188 2.808594 L 0.992188 2.886719 C 0.992188 2.523438 1.289062 2.226562 1.652344 2.226562 L 14.222656 2.226562 C 14.589844 2.226562 14.882812 2.523438 14.882812 2.886719 L 14.882812 2.808594 C 14.882812 2.441406 14.589844 2.148438 14.222656 2.148438 Z M 1.652344 2.148438 "/>
<path style=" stroke:none;fill-rule:nonzero;fill:rgb(12.941177%,12.941177%,12.941177%);fill-opacity:1;" d="M 1.652344 2.0625 C 1.261719 2.0625 0.945312 2.378906 0.945312 2.769531 L 0.945312 13.355469 C 0.945312 13.746094 1.261719 14.0625 1.652344 14.0625 L 14.222656 14.0625 C 14.613281 14.0625 14.929688 13.746094 14.929688 13.355469 L 14.929688 2.769531 C 14.929688 2.378906 14.613281 2.0625 14.222656 2.0625 Z M 1.652344 2.15625 L 14.222656 2.15625 C 14.5625 2.15625 14.835938 2.429688 14.835938 2.769531 L 14.835938 13.355469 C 14.835938 13.695312 14.5625 13.96875 14.222656 13.96875 L 1.652344 13.96875 C 1.3125 13.96875 1.039062 13.695312 1.039062 13.355469 L 1.039062 2.769531 C 1.039062 2.429688 1.3125 2.15625 1.652344 2.15625 Z M 1.652344 2.15625 "/>
<path style=" stroke:none;fill-rule:nonzero;fill:url(#linear4);" d="M 10.324219 4.730469 C 10.898438 4.730469 11.367188 5.195312 11.367188 5.773438 C 11.367188 6.347656 10.898438 6.8125 10.324219 6.8125 C 9.75 6.8125 9.28125 6.347656 9.28125 5.773438 C 9.28125 5.195312 9.75 4.730469 10.324219 4.730469 Z M 10.324219 4.730469 "/>
<path style=" stroke:none;fill-rule:nonzero;fill:url(#linear5);" d="M 4.6875 6.203125 C 4.582031 6.203125 4.480469 6.25 4.402344 6.324219 L 2.777344 7.949219 L 3.234375 8.492188 C 3.445312 8.703125 4.050781 8.714844 4.695312 8.285156 C 5.109375 7.875 5.605469 7.910156 5.945312 8.285156 C 6.429688 8.734375 6.871094 8.703125 7.363281 8.703125 L 4.988281 6.324219 C 4.910156 6.246094 4.800781 6.203125 4.6875 6.203125 Z M 12.195312 7.453125 C 12.082031 7.457031 11.96875 7.503906 11.890625 7.59375 L 10.921875 8.703125 L 10.949219 8.703125 C 11.023438 8.859375 11.054688 9.429688 11.367188 9.117188 C 11.898438 8.585938 11.992188 8.804688 12.199219 9.015625 C 12.511719 9.328125 12.722656 9.640625 13.035156 9.535156 C 13.554688 9.328125 13.644531 8.8125 13.414062 8.394531 L 12.476562 7.558594 C 12.394531 7.488281 12.292969 7.453125 12.195312 7.453125 Z M 12.195312 7.453125 "/>
<path style="fill:none;stroke-width:3;stroke-linecap:round;stroke-linejoin:round;stroke:rgb(12.941177%,12.941177%,12.941177%);stroke-opacity:1;stroke-miterlimit:4;" d="M 126.987873 -84.012509 L 380.96362 -84.012509 C 392.712498 -84.012509 402.211591 -74.513416 402.211591 -62.889526 L 402.211591 148.840255 C 402.211591 160.464145 392.712498 169.963238 380.96362 169.963238 L 126.987873 169.963238 C 115.363983 169.963238 105.86489 160.464145 105.86489 148.840255 L 105.86489 -62.889526 C 105.86489 -74.513416 115.363983 -84.012509 126.987873 -84.012509 Z M 126.987873 -84.012509 " transform="matrix(0.031253,0,0,0.031253,0,6.719392)"/>
</g>
</svg>
